assets/logos/fedex-logo.svg

<svg width="101" height="30" viewBox="0 0 101 30" fill="none" xmlns="http://www.w3.org/2000/svg">
<g clip-path="url(#clip0)">
<path d="M74.8638 29.1021L83.2033 19.8655L74.8638 10.6277H83.6629L87.7933 15.1148L91.7707 10.6277H100.263L91.9629 19.8274L100.377 29.1021H91.5416L87.4485 24.5781L83.3942 29.1021H74.8638Z" fill="#FF6600"/>
<path d="M74.8637 6.48643H65.4185V10.6277H74.8637V16.869H65.4185V22.5977H74.8637V29.1021H58.4763V0H74.8637V6.48643Z" fill="#FF6600"/>
<path d="M51.5635 0V11.91H51.4874C49.957 10.176 48.0448 9.57343 45.8261 9.57343C41.2813 9.57343 37.8578 12.6189 36.6561 16.6453C35.2857 12.2087 31.7513 9.49028 26.5104 9.49028C22.2543 9.49028 18.8935 11.3734 17.1396 14.442V10.6281H8.34217V6.48729H17.9426V0H0.5V29.1026H8.34217V16.869H16.1587C15.9257 17.7677 15.8013 18.7299 15.8013 19.7451C15.8013 25.8159 20.5061 30.0754 26.5104 30.0754C31.5596 30.0754 34.887 27.7389 36.647 23.4789H29.9265C29.0174 24.7586 28.3278 25.1387 26.5104 25.1387C24.403 25.1387 22.5861 23.3263 22.5861 21.1779H36.2704C36.8639 25.9997 40.6743 30.1581 45.9035 30.1581C48.1591 30.1581 50.2244 29.0644 51.4874 27.2177H51.5635V29.1017H58.4765V0H51.5635ZM22.8043 16.956C23.2404 15.1076 24.6948 13.8994 26.5104 13.8994C28.5091 13.8994 29.8896 15.0703 30.2526 16.956C30.4057 16.956 22.8043 16.956 22.8043 16.956ZM47.3683 24.6711C44.82 24.6711 43.2365 22.3307 43.2365 19.887C43.2365 17.2749 44.6139 14.763 47.3683 14.763C50.2243 14.763 51.3622 17.2749 51.3622 19.887C51.3617 22.3641 50.1561 24.6711 47.3683 24.6711Z" fill="#652C8F"/>
</g>
<defs>
<clipPath id="clip0">
<rect width="101" height="30" fill="white"/>
</clipPath>
</defs>
</svg>

<svg xmlns="http://www.w3.org/2000/svg" width="101" height="30" fill="none"><g clip-path="url(#a)"><path fill="#F60" d="m74.864 29.102 8.34-9.236-8.34-9.238h8.799l4.13 4.487 3.978-4.487h8.492l-8.3 9.2 8.414 9.274h-8.835l-4.094-4.524-4.054 4.524h-8.53ZM74.864 6.486h-9.446v4.142h9.446v6.241h-9.446v5.729h9.446v6.504H58.476V0h16.388v6.486Z"/><path fill="#652C8F" d="M51.563 0v11.91h-.076c-1.53-1.734-3.442-2.337-5.66-2.337-4.546 0-7.97 3.046-9.17 7.072C35.285 12.21 31.75 9.49 26.51 9.49c-4.256 0-7.617 1.883-9.37 4.952v-3.814H8.342v-4.14h9.6V0H.5v29.103h7.842V16.869h7.817c-.233.899-.358 1.86-.358 2.876 0 6.07 4.705 10.33 10.71 10.33 5.049 0 8.376-2.336 10.136-6.596h-6.72c-.91 1.28-1.6 1.66-3.417 1.66-2.107 0-3.924-1.813-3.924-3.961H36.27c.594 4.822 4.404 8.98 9.633 8.98a6.725 6.725 0 0 0 5.584-2.94h.076v1.884h6.913V0h-6.913ZM22.804 16.956c.436-1.848 1.89-3.057 3.706-3.057 2 0 3.38 1.171 3.743 3.057h-7.449Zm24.564 7.715c-2.548 0-4.132-2.34-4.132-4.784 0-2.612 1.378-5.124 4.132-5.124 2.856 0 3.994 2.512 3.994 5.124 0 2.477-1.206 4.784-3.994 4.784Z"/></g><defs><clipPath id="a"><path fill="#fff" d="M0 0h101v30H0z"/></clipPath></defs></svg>
